packages/blockchain-info-components/src/Images/img/interest.svg

<svg fill="none" height="24" viewBox="0 0 24 24" width="24" xmlns="http://www.w3.org/2000/svg"><g fill="#121d33"><path d="m8.5 7.36364c-.6276 0-1.13636.50876-1.13636 1.13636s.50876 1.13636 1.13636 1.13636 1.13636-.50876 1.13636-1.13636-.50876-1.13636-1.13636-1.13636z"/><path d="m15.5 14.3636c-.6276 0-1.1364.5088-1.1364 1.1364s.5088 1.1364 1.1364 1.1364 1.1364-.5088 1.1364-1.1364-.5088-1.1364-1.1364-1.1364z"/><path clip-rule="evenodd" d="m12 24c6.6274 0 12-5.3726 12-12 0-6.62742-5.3726-12-12-12-6.62742 0-12 5.37258-12 12 0 6.6274 5.37258 12 12 12zm-6-15.5c0-1.38071 1.11929-2.5 2.5-2.5s2.5 1.11929 2.5 2.5-1.11929 2.5-2.5 2.5-2.5-1.11929-2.5-2.5zm7 7c0-1.3807 1.1193-2.5 2.5-2.5s2.5 1.1193 2.5 2.5-1.1193 2.5-2.5 2.5-2.5-1.1193-2.5-2.5zm5-8.3-10.8 10.8-1.2-1.2 10.8-10.8z" fill-rule="evenodd"/></g></svg>

<svg width="24" height="24" viewBox="0 0 24 24" fill="none" xmlns="http://www.w3.org/2000/svg">
<path d="M8.5 7.36364C7.8724 7.36364 7.36364 7.8724 7.36364 8.5C7.36364 9.1276 7.8724 9.63636 8.5 9.63636C9.1276 9.63636 9.63636 9.1276 9.63636 8.5C9.63636 7.8724 9.1276 7.36364 8.5 7.36364Z" fill="#121D33"/>
<path d="M15.5 14.3636C14.8724 14.3636 14.3636 14.8724 14.3636 15.5C14.3636 16.1276 14.8724 16.6364 15.5 16.6364C16.1276 16.6364 16.6364 16.1276 16.6364 15.5C16.6364 14.8724 16.1276 14.3636 15.5 14.3636Z" fill="#121D33"/>
<path fill-rule="evenodd" clip-rule="evenodd" d="M12 24C18.6274 24 24 18.6274 24 12C24 5.37258 18.6274 0 12 0C5.37258 0 0 5.37258 0 12C0 18.6274 5.37258 24 12 24ZM6 8.5C6 7.11929 7.11929 6 8.5 6C9.88071 6 11 7.11929 11 8.5C11 9.88071 9.88071 11 8.5 11C7.11929 11 6 9.88071 6 8.5ZM13 15.5C13 14.1193 14.1193 13 15.5 13C16.8807 13 18 14.1193 18 15.5C18 16.8807 16.8807 18 15.5 18C14.1193 18 13 16.8807 13 15.5ZM18 7.2L7.2 18L6 16.8L16.8 6L18 7.2Z" fill="#121D33"/>
</svg>
